Apricity Icons/16/panel/btsync-gui-11.svg

<svg xmlns="http://www.w3.org/2000/svg" width="16" height="16" version="1.1">
 <defs>
  <style id="current-color-scheme" type="text/css">
   .ColorScheme-Text { color:#dfdfdf; } .ColorScheme-Highlight { color:#4285f4; }
  </style>
 </defs>
 <path style="fill:currentColor" class="ColorScheme-Text" d="m 12.949747,12.949746 c 2.733498,-2.733497 2.733499,-7.1659949 0,-9.8994932 -2.733498,-2.73349804 -7.1659972,-2.73349814 -9.8994947,-2e-7 -2.73349754,2.7334985 -2.73349845,7.1659984 1.3e-6,9.8994954 2.7334969,2.733498 7.1659964,2.733498 9.8994934,-2e-6 z M 11.535534,11.535534 C 9.82504,13.246027 7.1833864,13.458493 5.2420061,12.172206 L 4.4644679,12.949747 3.7573587,9.4142139 7.2928928,10.121321 6.7156069,10.698606 c 1.1143493,0.530105 2.4832847,0.345143 3.4057131,-0.577285 0.503639,-0.5054163 0.810651,-1.1737916 0.865931,-1.8851577 l 1.997023,-0.5358548 c 0.0875,1.426721 -0.43982,2.8226705 -1.44874,3.8352255 z M 12.242641,6.5857869 8.7071067,5.8786801 9.284393,5.3013931 C 8.170043,4.7712889 6.8011082,4.9562516 5.8786788,5.8786798 5.3750428,6.3840978 5.0680287,7.0524712 5.012748,7.7638384 L 3.0157259,8.2996923 C 2.9282311,6.8729709 3.4555677,5.4770431 4.464466,4.4644665 6.174959,2.753972 8.8166132,2.5415084 10.757992,3.8277934 l 0.777541,-0.7775404 0.707108,3.5355339 z"/>
</svg>

<svg xmlns="http://www.w3.org/2000/svg" width="16" height="16"><defs><style id="current-color-scheme" type="text/css"></style></defs><path d="M12.95 12.95a7 7 0 1 0-9.9-9.9 7 7 0 0 0 9.9 9.9zm-1.414-1.414a5.002 5.002 0 0 1-6.294.636l-.778.778-.707-3.536 3.536.707-.577.578a2.99 2.99 0 0 0 3.405-.578 3 3 0 0 0 .866-1.885l1.997-.536a5 5 0 0 1-1.448 3.836zm.707-4.95l-3.536-.707.577-.578a2.99 2.99 0 0 0-3.405.578 3 3 0 0 0-.866 1.885L3.016 8.3a5 5 0 0 1 1.448-3.836 5.002 5.002 0 0 1 6.294-.636l.778-.778.707 3.536z" fill="currentColor" color="#dfdfdf"/></svg>
